!!!ONB: MCCC : IGH0471_03 : Extracted Monophonic Melody
!!!COM: Handel, George Frideric
!!!OPR: Suite in D minor
!!!OMV: 3
!!!SCT: HWV 437
!!!ODT: 1733///
**kern
*staff1
=1
*clefG2
*k[b-]
*F:
*M3/2
2f
2f
4r
4g
=2
2e
2e
2r
=3
2a
2a
4r
4b-
=4
2g
2g
4r
4a
=5
2b-
2b-
4r
4cc
=6
2a
2a
4r
4a
=7
2dd
2dd
4r
4ee
=8
2cc#
2cc#
2r
=9
2f
2f
4r
4g
=10
2e
2e
2r
=11
2a
2a
4r
4b-
=12
2g
2g
4r
4a
=13
2b-
2b-
4r
4cc
=14
2.a
4a
4dd
4cc#
=15
2dd
2ff
4ee
4dd
=16
2dd
2dd
2r
=17
2f
2f
4r
4g
=18
2e
2e
2r
=19
2a
2a
4r
4b-
=20
2g
2g
4r
4a
=21
2b-
2b-
4r
4cc
=22
2a
2a
4r
4a
=23
2dd
2dd
4r
4ee
=24
2cc#
2cc#
2r
=25
2f
2f
4r
4g
=26
2e
2e
2r
=27
2a
2a
4r
4b-
=28
2g
2g
4r
4a
=29
2b-
2b-
4r
4cc
=30
2.a
4a
4dd
4cc#
=31
2dd
2ff
2ee
=32
2dd
2dd
2r
=33
*M6/4
2.f
4a
4g
4f
=34
2.e
2.r
=35
2.a
4cc
4b-
4a
=36
2g
4e[
2e]
4a
=37
2.b-
4dd
4cc
4b-
=38
2.a
2r
4a
=39
2.dd
4ff
4ee
4dd
=40
4cc#
4ee
4a
4cc#
4e
4g
=41
2.f
4a
4g
4f
=42
2.e
2.r
=43
2.a
4cc
4b-
4a
=44
2g
4e[
2e]
4a
=45
2.b-
4dd
4cc
4b-
=46
2.a
4a
2dd
=47
4r
4ee
4ff[
4ff]
2ee
=48
1.dd
=49
2.f
4a
4g
4f
=50
2.e
2.r
=51
2.a
4cc
4b-
4a
=52
2g
4e[
2e]
4a
=53
2.b-
4dd
4cc
4b-
=54
2.a
2r
4a
=55
2.dd
4ff
4ee
4dd
=56
4cc#
4ee
4a
4cc#
4e
4g
=57
2.f
4a
4g
4f
=58
2.e
2.r
=59
2.a
4cc
4b-
4a
=60
2g
4e[
2e]
4a
=61
2.b-
4dd
4cc
4b-
=62
2.a
4a
[2dd
=63
4dd]
4ee
4ff[
4ff]
2ee
=64
1.dd
=65
2f
4f[
2.f]
=66
2e
4e[
2.e]
=67
2a
4a[
2.a]
=68
2g
4g[
2.g]
=69
2b-
4b-[
2.b-]
=70
2a
4a[
2.a]
=71
2dd
4ee[
2ee]
4dd
=72
1.cc#
=73
2f
4f[
2.f]
=74
2e
4e[
2.e]
=75
2a
4a[
2.a]
=76
2g
4g[
2.g]
=77
2b-
4b-[
2.b-]
=78
2.a
4a
4dd
4cc#
=79
4dd
4ee
4ff[
4ff]
2ee
=80
1.dd
==
*-
